packages/foundations/assets/icons/functional/images/audio & video/volume_down_16.svg

<svg width="16" height="16" viewBox="0 0 16 16" fill="none" xmlns="http://www.w3.org/2000/svg">
<g clip-path="url(#clip0_184_390)">
<path fill-rule="evenodd" clip-rule="evenodd" d="M8.81501 3.19995C9.26501 3.19995 9.61701 3.57495 9.61701 3.99995V12C9.61701 12.45 9.26601 12.8 8.81501 12.8C8.66442 12.797 8.51735 12.7538 8.38901 12.675L6.18301 11.2H5.60601C4.27801 11.2 3.20001 10.125 3.20001 8.82495V7.22495C3.20001 5.89995 4.27801 4.79995 5.60601 4.79995H6.18301L8.38901 3.34995C8.50978 3.25288 8.66007 3.19996 8.81501 3.19995ZM8.01301 5.49995L6.86001 6.27495C6.72369 6.35735 6.5673 6.4006 6.40801 6.39995H5.60601C5.39406 6.40126 5.19112 6.4859 5.04106 6.63559C4.89099 6.78528 4.80585 6.988 4.80401 7.19995V8.79995C4.80401 9.24995 5.15501 9.59995 5.60601 9.59995H6.40801C6.58401 9.59995 6.73401 9.67495 6.86001 9.74995L8.01301 10.5V5.49995ZM10.393 9.59995C10.393 8.79995 11.196 8.79995 11.196 8.02495C11.196 7.22495 10.394 7.22495 10.394 6.42495C10.394 6.02495 10.794 5.59995 11.196 5.59995C11.998 5.59995 12.8 6.79995 12.8 8.02495C12.8 9.22495 11.998 10.425 11.196 10.425C10.795 10.425 10.393 10.025 10.393 9.59995Z" fill="#1A1C1F"/>
</g>
<defs>
<clipPath id="clip0_184_390">
<rect width="16" height="16" fill="white"/>
</clipPath>
</defs>
</svg>

<svg xmlns="http://www.w3.org/2000/svg" width="16" height="16" fill="none"><g clip-path="url(#a)"><path fill="#1A1C1F" fill-rule="evenodd" d="M8.815 3.2c.45 0 .802.375.802.8v8c0 .45-.351.8-.802.8a.85.85 0 0 1-.426-.125L6.183 11.2h-.577C4.278 11.2 3.2 10.125 3.2 8.825v-1.6C3.2 5.9 4.278 4.8 5.606 4.8h.577l2.206-1.45a.68.68 0 0 1 .426-.15m-.802 2.3-1.153.775a.87.87 0 0 1-.452.125h-.802a.807.807 0 0 0-.802.8v1.6c0 .45.351.8.802.8h.802c.176 0 .326.075.452.15l1.153.75zm2.38 4.1c0-.8.803-.8.803-1.575 0-.8-.802-.8-.802-1.6 0-.4.4-.825.802-.825.802 0 1.604 1.2 1.604 2.425 0 1.2-.802 2.4-1.604 2.4-.401 0-.803-.4-.803-.825" clip-rule="evenodd"/></g><defs><clipPath id="a"><path fill="#fff" d="M0 0h16v16H0z"/></clipPath></defs></svg>
